images/spur6.svg

<?xml version="1.1" encoding="UTF-8"?>
<svg viewBox="-11.3 -11.3 28.6 22.6" height="22.6mm" width="28.6mm" xmlns:svgjs="http://svgjs.com/svgjs" xmlns:xlink="http://www.w3.org/1999/xlink" version="1.1" xmlns="http://www.w3.org/2000/svg" id="SvgjsSvg1391">
  <defs id="SvgjsDefs1392">
  </defs>
  <defs id="SvgjsDefs1392">
  </defs>
  <g id="SvgjsG1393">
    <g transform="matrix(1,0,0,1,12,0)" id="SvgjsG1394">
      <g fill="none" stroke-width="0.04" stroke="blue" id="SvgjsG1395">
        <circle cy="0" cx="0" r="3" id="SvgjsCircle1396">
        </circle>
        <circle cy="0" cx="0" r="4" id="SvgjsCircle1397">
        </circle>
      </g>
      <g fill="none" stroke-width="0.1" stroke="black" id="SvgjsG1398">
        <circle cy="0" cx="0" r="2" id="SvgjsCircle1399">
        </circle>
        <path d="M-0.30398248504199943 3.913013108703789  L-0.3735684090678837 3.8253794646082486 L-0.43683540498970475 3.7384611159870955 L-0.49321826156080784 3.6537390882441145 L-0.5430932223377223 3.5715850543352357 L-0.5881523123541368 3.489809687586485 L-0.62665212218873 3.4124333143017402 L-0.660271638399417 3.3371240245045355 L-0.7126140084719141 3.1971036688586736 L-0.7478013325480939 3.0719299019410085 L-0.7684053797733189 2.965337158576647 L-0.7782191490373002 2.87453510555562 L-0.7797271267129048 2.7970269995064467 L-0.7275378018894126 2.724332437299443 L-0.6779108988190373 2.6449161197592566 L-0.6361019173167313 2.566320839584556 L-0.6019344472209804 2.4890410454126246 L-0.575237078370271 2.4135798461347893 L-0.5557750993329003 2.3404307096262227 L-0.5432974589312027 2.2700388024919085 L-0.5375457854794377 2.202876611844906 L-0.5382143867837885 2.1393746632740487 L-0.544982570650439 2.079937501606055 L-0.5574973243774964 2.024953690905531 L-0.575400635263069 1.9748031349830435 L-0.5983058303512263 1.929836096633009 L-0.6257925764320008 1.8903645373796554 L-0.6574492005494621 1.8566954187472084 L-0.6928253694936427 1.8290887407356695 L-0.7117705116793923 1.8176426895580042 L-0.844253406844887 1.7577697951184623 L-0.975 1.6887495373796553 L-1.1001465931551129 1.6100297951184621 L-1.2182394883206076 1.5252326895580044 L-1.2376246305063572 1.5145487407356695 L-1.2792207994505378 1.4977154187472086 L-1.3242074235679993 1.4871345373796552 L-1.3721341696487737 1.4830660966330091 L-1.422529364736931 1.4857131349830435 L-1.4749126756225035 1.495283690905531 L-1.5287874293495611 1.5119375016060552 L-1.5836456132162113 1.5357946632740487 L-1.6389742145205624 1.5669666118449064 L-1.6942625410687975 1.6055288024919085 L-1.7489849006670997 1.6515307096262226 L-1.8026029216297288 1.7049598461347895 L-1.8546055527790195 1.7658110454126246 L-1.9044480826832688 1.8340408395845555 L-1.9516091011809626 1.9095461197592567 L-1.9955721981105876 1.9922324372994429 L-2.032432873287095 2.0737769995064466 L-2.1003108509626998 2.1112251055556204 L-2.183854620226681 2.1481271585766466 L-2.286468667451906 2.1835799019410085 L-2.412465991528086 2.2156936688586732 L-2.559898361600583 2.2403740245045354 L-2.64192787781127 2.24891331430174 L-2.728187687645863 2.254259687586485 L-2.8215367776622777 2.256125054335236 L-2.917621738439192 2.2540090882441146 L-3.0191845950102953 2.2475411159870955 L-3.1260915909321163 2.2362094646082484 L-3.2367775149580007 2.219763108703789 L-3.3406799715504993 2.1998581948008606 A4 4 0 0 1 -3.575473067196172 1.7931846238761782 L-3.54076 1.6932500000000001 L-3.49966 1.5891700000000002 L-3.45602 1.4909200000000002 L-3.41084 1.3997300000000001 L-3.36463 1.3154600000000003 L-3.31634 1.2355500000000001 L-3.26858 1.1635200000000003 L-3.22017 1.0967500000000001 L-3.12508 0.9814100000000002 L-3.03427 0.8883500000000002 L-2.95226 0.8172100000000002 L-2.87853 0.7633100000000003 L-2.81216 0.7232500000000002 L-2.72311 0.7321000000000002 L-2.62952 0.7353700000000001 L-2.54055 0.7322800000000002 L-2.45654 0.7232300000000002 L-2.37784 0.7086200000000001 L-2.30476 0.6889000000000001 L-2.23756 0.6645100000000002 L-2.17652 0.6359100000000001 L-2.12186 0.6035800000000001 L-2.07377 0.5680000000000001 L-2.03241 0.5296700000000001 L-1.99793 0.48909000000000014 L-1.97044 0.4467700000000001 L-1.95 0.4032300000000001 L-1.93667 0.35898000000000013 L-1.93045 0.3145400000000001 L-1.93001 0.2924100000000001 L-1.9444 0.14774000000000012 L-1.95 1.1940306291686693e-16 L-1.9444 -0.1477399999999999 L-1.93001 -0.2924099999999999 L-1.93045 -0.3145399999999999 L-1.93667 -0.3589799999999999 L-1.95 -0.40322999999999987 L-1.97044 -0.4467699999999999 L-1.99793 -0.4890899999999999 L-2.03241 -0.5296699999999999 L-2.07377 -0.5679999999999998 L-2.12186 -0.6035799999999999 L-2.17652 -0.6359099999999999 L-2.23756 -0.6645099999999999 L-2.30476 -0.6888999999999998 L-2.37784 -0.7086199999999999 L-2.45654 -0.7232299999999999 L-2.54055 -0.7322799999999999 L-2.62952 -0.7353699999999999 L-2.72311 -0.7320999999999998 L-2.81216 -0.7232499999999997 L-2.87853 -0.7633099999999998 L-2.95226 -0.8172099999999998 L-3.03427 -0.8883499999999998 L-3.12508 -0.9814099999999998 L-3.22017 -1.0967499999999997 L-3.26858 -1.1635199999999999 L-3.31634 -1.2355499999999997 L-3.36463 -1.3154599999999999 L-3.41084 -1.3997299999999997 L-3.45602 -1.4909199999999998 L-3.49966 -1.5891699999999997 L-3.54076 -1.6932499999999997 L-3.575473067196172 -1.7931846238761777 A4 4 0 0 1 -3.3406799715505002 -2.1998581948008598 L-3.2367775149580016 -2.219763108703788 L-3.126091590932117 -2.2362094646082475 L-3.0191845950102962 -2.2475411159870946 L-2.917621738439193 -2.2540090882441137 L-2.8215367776622786 -2.256125054335235 L-2.728187687645864 -2.254259687586484 L-2.641927877811271 -2.2489133143017397 L-2.5598983616005837 -2.2403740245045354 L-2.412465991528087 -2.215693668858673 L-2.286468667451907 -2.1835799019410076 L-2.1838546202266818 -2.148127158576646 L-2.1003108509627006 -2.1112251055556195 L-2.032432873287096 -2.0737769995064466 L-1.9955721981105885 -1.9922324372994422 L-1.9516091011809633 -1.9095461197592565 L-1.9044480826832695 -1.834040839584555 L-1.8546055527790204 -1.7658110454126243 L-1.8026029216297297 -1.704959846134789 L-1.7489849006671 -1.6515307096262222 L-1.694262541068798 -1.605528802491908 L-1.6389742145205628 -1.566966611844906 L-1.583645613216212 -1.5357946632740482 L-1.5287874293495618 -1.511937501606055 L-1.4749126756225042 -1.4952836909055305 L-1.4225293647369317 -1.485713134983043 L-1.372134169648774 -1.4830660966330087 L-1.3242074235679997 -1.487134537379655 L-1.2792207994505382 -1.4977154187472081 L-1.237624630506358 -1.5145487407356693 L-1.2182394883206085 -1.525232689558004 L-1.1001465931551135 -1.6100297951184621 L-0.9750000000000006 -1.688749537379655 L-0.8442534068448877 -1.7577697951184623 L-0.711770511679393 -1.8176426895580042 L-0.6928253694936434 -1.8290887407356693 L-0.6574492005494629 -1.8566954187472084 L-0.6257925764320016 -1.8903645373796552 L-0.5983058303512271 -1.929836096633009 L-0.5754006352630696 -1.9748031349830435 L-0.5574973243774972 -2.024953690905531 L-0.5449825706504396 -2.079937501606055 L-0.5382143867837892 -2.1393746632740487 L-0.5375457854794384 -2.202876611844906 L-0.5432974589312035 -2.2700388024919085 L-0.555775099332901 -2.3404307096262227 L-0.575237078370272 -2.4135798461347897 L-0.6019344472209813 -2.489041045412625 L-0.6361019173167323 -2.5663208395845554 L-0.6779108988190383 -2.644916119759257 L-0.7275378018894135 -2.7243324372994424 L-0.7797271267129058 -2.7970269995064467 L-0.7782191490373012 -2.87453510555562 L-0.7684053797733199 -2.9653371585766464 L-0.7478013325480951 -3.0719299019410085 L-0.7126140084719154 -3.197103668858673 L-0.6602716383994183 -3.3371240245045355 L-0.6266521221887311 -3.4124333143017407 L-0.5881523123541381 -3.489809687586485 L-0.5430932223377236 -3.5715850543352357 L-0.49321826156080895 -3.6537390882441145 L-0.4368354049897061 -3.7384611159870955 L-0.373568409067885 -3.8253794646082486 L-0.30398248504200076 -3.913013108703789 L-0.23479309564567363 -3.993042818677039 A4 4 0 0 1 0.23479309564567274 -3.993042818677039 L0.3039824850419999 -3.9130131087037894 L0.37356840906788413 -3.8253794646082486 L0.4368354049897052 -3.7384611159870955 L0.4932182615608083 -3.6537390882441145 L0.5430932223377227 -3.5715850543352357 L0.5881523123541372 -3.489809687586485 L0.6266521221887305 -3.4124333143017402 L0.6602716383994175 -3.3371240245045355 L0.7126140084719146 -3.1971036688586736 L0.7478013325480943 -3.0719299019410085 L0.7684053797733191 -2.965337158576647 L0.7782191490373004 -2.8745351055556205 L0.779727126712905 -2.7970269995064467 L0.7275378018894129 -2.724332437299443 L0.6779108988190375 -2.644916119759257 L0.6361019173167315 -2.566320839584556 L0.6019344472209807 -2.4890410454126246 L0.5752370783702713 -2.4135798461347893 L0.5557750993329005 -2.3404307096262227 L0.543297458931203 -2.2700388024919085 L0.5375457854794379 -2.2028766118449066 L0.5382143867837887 -2.1393746632740487 L0.5449825706504392 -2.0799375016060555 L0.5574973243774967 -2.024953690905531 L0.5754006352630692 -1.9748031349830435 L0.5983058303512265 -1.929836096633009 L0.625792576432001 -1.8903645373796554 L0.6574492005494623 -1.8566954187472087 L0.6928253694936429 -1.8290887407356695 L0.7117705116793925 -1.8176426895580042 L0.8442534068448873 -1.7577697951184623 L0.9750000000000002 -1.6887495373796553 L1.100146593155113 -1.6100297951184621 L1.218239488320608 -1.5252326895580044 L1.2376246305063576 -1.5145487407356695 L1.279220799450538 -1.4977154187472084 L1.3242074235679993 -1.4871345373796552 L1.3721341696487739 -1.4830660966330091 L1.4225293647369313 -1.4857131349830435 L1.474912675622504 -1.4952836909055307 L1.5287874293495614 -1.5119375016060552 L1.5836456132162116 -1.5357946632740487 L1.6389742145205626 -1.5669666118449064 L1.6942625410687977 -1.6055288024919085 L1.7489849006670999 -1.6515307096262224 L1.8026029216297292 -1.7049598461347892 L1.8546055527790197 -1.7658110454126246 L1.904448082683269 -1.8340408395845555 L1.9516091011809626 -1.9095461197592567 L1.9955721981105876 -1.9922324372994429 L2.0324328732870955 -2.0737769995064466 L2.1003108509627 -2.11122510555562 L2.1838546202266813 -2.1481271585766466 L2.2864686674519064 -2.1835799019410085 L2.4124659915280864 -2.2156936688586732 L2.5598983616005833 -2.2403740245045354 L2.6419278778112707 -2.24891331430174 L2.7281876876458635 -2.254259687586485 L2.821536777662278 -2.256125054335236 L2.9176217384391925 -2.2540090882441146 L3.019184595010296 -2.2475411159870955 L3.1260915909321167 -2.2362094646082484 L3.236777514958001 -2.2197631087037886 L3.3406799715505002 -2.1998581948008606 A4 4 0 0 1 3.5754730671961714 -1.7931846238761786 L3.5407599999999997 -1.6932500000000006 L3.4996599999999995 -1.5891700000000006 L3.4560199999999996 -1.4909200000000007 L3.4108399999999994 -1.3997300000000006 L3.3646299999999996 -1.3154600000000007 L3.3163399999999994 -1.2355500000000006 L3.26858 -1.1635200000000008 L3.22017 -1.0967500000000006 L3.12508 -0.9814100000000006 L3.03427 -0.8883500000000005 L2.95226 -0.8172100000000005 L2.87853 -0.7633100000000006 L2.81216 -0.7232500000000005 L2.72311 -0.7321000000000005 L2.62952 -0.7353700000000004 L2.54055 -0.7322800000000005 L2.45654 -0.7232300000000005 L2.37784 -0.7086200000000005 L2.30476 -0.6889000000000004 L2.23756 -0.6645100000000005 L2.17652 -0.6359100000000004 L2.12186 -0.6035800000000004 L2.07377 -0.5680000000000003 L2.03241 -0.5296700000000003 L1.99793 -0.4890900000000004 L1.97044 -0.4467700000000004 L1.95 -0.4032300000000003 L1.93667 -0.35898000000000035 L1.93045 -0.3145400000000003 L1.93001 -0.29241000000000034 L1.9444 -0.14774000000000037 L1.95 -3.5820918875060077e-16 L1.9444 0.14773999999999965 L1.93001 0.29240999999999967 L1.93045 0.31453999999999965 L1.93667 0.3589799999999997 L1.95 0.40322999999999964 L1.97044 0.4467699999999996 L1.99793 0.48908999999999964 L2.03241 0.5296699999999996 L2.07377 0.5679999999999996 L2.12186 0.6035799999999996 L2.17652 0.6359099999999995 L2.23756 0.6645099999999996 L2.30476 0.6888999999999995 L2.37784 0.7086199999999996 L2.45654 0.7232299999999996 L2.54055 0.7322799999999996 L2.62952 0.7353699999999995 L2.72311 0.7320999999999994 L2.81216 0.7232499999999994 L2.87853 0.7633099999999995 L2.95226 0.8172099999999994 L3.03427 0.8883499999999994 L3.12508 0.9814099999999994 L3.22017 1.0967499999999992 L3.26858 1.1635199999999994 L3.3163400000000003 1.2355499999999993 L3.3646300000000005 1.3154599999999994 L3.4108400000000003 1.3997299999999993 L3.4560200000000005 1.4909199999999994 L3.4996600000000004 1.5891699999999993 L3.5407600000000006 1.6932499999999993 L3.5754730671961723 1.7931846238761773 A4 4 0 0 1 3.3406799715505007 2.1998581948008593 L3.2367775149580016 2.2197631087037872 L3.126091590932117 2.236209464608247 L3.0191845950102962 2.2475411159870937 L2.9176217384391934 2.2540090882441133 L2.8215367776622786 2.256125054335234 L2.728187687645864 2.254259687586484 L2.6419278778112716 2.2489133143017392 L2.559898361600584 2.2403740245045345 L2.4124659915280873 2.215693668858672 L2.2864686674519072 2.183579901941007 L2.183854620226682 2.1481271585766453 L2.100310850962701 2.111225105555619 L2.0324328732870964 2.073776999506446 L1.9955721981105885 1.9922324372994415 L1.9516091011809635 1.909546119759256 L1.9044480826832697 1.8340408395845544 L1.8546055527790206 1.7658110454126237 L1.8026029216297297 1.7049598461347886 L1.7489849006671006 1.6515307096262217 L1.6942625410687981 1.6055288024919077 L1.6389742145205632 1.5669666118449057 L1.5836456132162122 1.535794663274048 L1.528787429349562 1.5119375016060546 L1.4749126756225044 1.4952836909055303 L1.422529364736932 1.4857131349830428 L1.3721341696487743 1.4830660966330085 L1.324207423568 1.4871345373796547 L1.2792207994505385 1.497715418747208 L1.237624630506358 1.5145487407356688 L1.2182394883206085 1.5252326895580037 L1.1001465931551138 1.610029795118462 L0.9750000000000009 1.6887495373796548 L0.8442534068448879 1.757769795118462 L0.7117705116793933 1.817642689558004 L0.6928253694936437 1.8290887407356693 L0.6574492005494632 1.8566954187472082 L0.6257925764320018 1.890364537379655 L0.5983058303512274 1.9298360966330088 L0.5754006352630698 1.9748031349830433 L0.5574973243774974 2.0249536909055306 L0.54498257065044 2.079937501606055 L0.5382143867837895 2.1393746632740487 L0.5375457854794387 2.202876611844906 L0.5432974589312038 2.2700388024919085 L0.5557750993329015 2.3404307096262222 L0.5752370783702724 2.4135798461347893 L0.6019344472209817 2.4890410454126246 L0.6361019173167326 2.566320839584555 L0.6779108988190387 2.6449161197592566 L0.7275378018894139 2.7243324372994424 L0.7797271267129063 2.7970269995064463 L0.7782191490373016 2.8745351055556196 L0.7684053797733204 2.9653371585766464 L0.7478013325480954 3.071929901941008 L0.7126140084719157 3.197103668858673 L0.6602716383994186 3.3371240245045355 L0.6266521221887318 3.4124333143017402 L0.5881523123541388 3.489809687586485 L0.5430932223377243 3.5715850543352357 L0.4932182615608096 3.653739088244114 L0.43683540498970674 3.7384611159870955 L0.3735684090678857 3.825379464608248 L0.3039824850420014 3.913013108703789 L0.2347930956456743 3.9930428186770386 A4 4 0 0 1 -0.2347930956456723 3.993042818677039 Z" id="SvgjsPath1400">
        </path>
      </g>
    </g>
  </g>
</svg>

<?xml version="1.0" encoding="UTF-8" standalone="no"?>
<svg
   viewBox="-11.3 -11.3 8.0399999 8.0998791"
   height="8.0998793mm"
   width="8.04mm"
   version="1.1"
   id="SvgjsSvg1391"
   sodipodi:docname="spur6.svg"
   inkscape:version="1.1 (c68e22c387, 2021-05-23)"
   xmlns:inkscape="http://www.inkscape.org/namespaces/inkscape"
   xmlns:sodipodi="http://sodipodi.sourceforge.net/DTD/sodipodi-0.dtd"
   xmlns="http://www.w3.org/2000/svg"
   xmlns:svg="http://www.w3.org/2000/svg">
  <sodipodi:namedview
     id="namedview14"
     pagecolor="#ffffff"
     bordercolor="#666666"
     borderopacity="1.0"
     inkscape:pageshadow="2"
     inkscape:pageopacity="0.0"
     inkscape:pagecheckerboard="0"
     inkscape:document-units="mm"
     showgrid="false"
     inkscape:zoom="6.087758"
     inkscape:cx="-18.89037"
     inkscape:cy="15.358692"
     inkscape:window-width="1366"
     inkscape:window-height="705"
     inkscape:window-x="-8"
     inkscape:window-y="-8"
     inkscape:window-maximized="1"
     inkscape:current-layer="SvgjsSvg1391" />
  <defs
     id="SvgjsDefs1392" />
  <defs
     id="defs3" />
  <g
     id="SvgjsG1393"
     transform="translate(-19.28,-7.2500603)">
    <g
       transform="translate(12)"
       id="SvgjsG1394">
      <g
         fill="none"
         stroke-width="0.04"
         stroke="#0000ff"
         id="SvgjsG1395">
        <circle
           cy="0"
           cx="0"
           r="3"
           id="SvgjsCircle1396" />
        <circle
           cy="0"
           cx="0"
           r="4"
           id="SvgjsCircle1397" />
      </g>
      <g
         fill="none"
         stroke-width="0.1"
         stroke="#000000"
         id="SvgjsG1398">
        <circle
           cy="0"
           cx="0"
           r="2"
           id="SvgjsCircle1399" />
        <path
           d="m -0.30398249,3.9130131 -0.0695859,-0.087634 -0.063267,-0.086918 -0.0563829,-0.084722 -0.049875,-0.082154 -0.0450591,-0.081775 -0.0384998,-0.077376 -0.0336195,-0.075309 -0.0523424,-0.1400203 -0.0351873,-0.1251738 -0.020604,-0.1065927 -0.009814,-0.090802 -0.001508,-0.077508 0.0521893,-0.072695 0.0496269,-0.079416 0.041809,-0.078595 0.0341675,-0.07728 0.0266974,-0.075461 0.019462,-0.073149 0.0124776,-0.070392 0.005752,-0.067162 -6.686e-4,-0.063502 -0.006768,-0.059437 -0.0125147,-0.054984 -0.0179033,-0.050151 -0.0229052,-0.044967 -0.0274868,-0.039472 -0.0316566,-0.033669 -0.0353762,-0.027607 -0.0189451,-0.011446 -0.1324829,-0.059873 -0.13074659,-0.06902 -0.12514662,-0.07872 -0.1180929,-0.084797 -0.019385,-0.010684 -0.041596,-0.016833 -0.044987,-0.010581 -0.047927,-0.00407 -0.050395,0.00265 -0.052383,0.00957 -0.053875,0.016654 -0.054858,0.023857 -0.055329,0.031172 -0.055288,0.038562 -0.054722,0.046002 -0.053618,0.053429 -0.052003,0.060851 -0.049843,0.06823 -0.047161,0.075505 -0.043963,0.082686 -0.036861,0.081545 -0.067878,0.037448 -0.083544,0.036902 -0.1026141,0.035453 -0.1259973,0.032114 -0.1474324,0.02468 -0.08203,0.00854 -0.08626,0.00535 -0.093349,0.00187 -0.096085,-0.00212 -0.1015629,-0.00647 -0.106907,-0.011332 -0.1106846,-0.01645 L -3.34068,2.1998582 A 4,4 0 0 1 -3.5754731,1.7931846 l 0.034713,-0.099935 0.0411,-0.10408 0.04364,-0.09825 0.04518,-0.09119 0.04621,-0.08427 0.04829,-0.07991 0.04776,-0.07203 0.04841,-0.06677 0.09509,-0.11534 0.09081,-0.09306 0.08201,-0.07114 0.07373,-0.0539 0.06637,-0.04006 0.08905,0.00885 0.09359,0.00327 0.08897,-0.00309 0.08401,-0.00905 0.0787,-0.01461 0.07308,-0.01972 0.0672,-0.02439 0.06104,-0.0286 L -2.12186,0.60358 -2.07377,0.568 -2.03241,0.52967 -1.99793,0.48909 -1.97044,0.44677 -1.95,0.40323 -1.93667,0.35898 -1.93045,0.31454 -1.93001,0.29241 -1.9444,0.14774 -1.95,0 -1.9444,-0.14774 -1.93001,-0.29241 -1.93045,-0.31454 -1.93667,-0.35898 -1.95,-0.40323 -1.97044,-0.44677 -1.99793,-0.48909 -2.03241,-0.52967 -2.07377,-0.568 l -0.04809,-0.03558 -0.05466,-0.03233 -0.06104,-0.0286 -0.0672,-0.02439 -0.07308,-0.01972 -0.0787,-0.01461 -0.08401,-0.00905 -0.08897,-0.00309 -0.09359,0.00327 -0.08905,0.00885 -0.06637,-0.04006 -0.07373,-0.0539 -0.08201,-0.07114 -0.09081,-0.09306 -0.09509,-0.11534 -0.04841,-0.06677 -0.04776,-0.07203 -0.04829,-0.07991 -0.04621,-0.08427 -0.04518,-0.09119 -0.04364,-0.09825 -0.0411,-0.10408 -0.034713,-0.099935 a 4,4 0 0 1 0.234793,-0.4066732 l 0.1039025,-0.019905 0.1106859,-0.016446 0.106907,-0.011332 0.1015629,-0.00647 0.096085,-0.00212 0.093349,0.00187 0.08626,0.00535 0.08203,0.00854 0.1474324,0.02468 0.1259973,0.032114 0.1026141,0.035453 0.083544,0.036902 0.067878,0.037448 0.036861,0.081545 0.043963,0.082686 0.047161,0.075505 0.049843,0.06823 0.052003,0.060851 0.053618,0.053429 0.054722,0.046002 0.055288,0.038562 0.055329,0.031172 0.054858,0.023857 0.053875,0.016654 0.052383,0.00957 0.050395,0.00265 0.047927,-0.00407 0.044987,-0.010581 0.041596,-0.016833 0.019385,-0.010684 0.1180929,-0.084797 0.1251466,-0.07872 0.13074659,-0.06902 0.1324829,-0.059873 0.0189451,-0.011446 0.0353762,-0.027607 0.0316566,-0.033669 0.0274868,-0.039472 0.0229052,-0.044967 0.0179033,-0.050151 0.0125147,-0.054984 0.006768,-0.059437 6.686e-4,-0.063502 -0.005752,-0.067162 -0.0124776,-0.070392 -0.019462,-0.073149 -0.0266974,-0.075461 -0.0341675,-0.07728 -0.041809,-0.078595 -0.0496269,-0.079416 -0.0521893,-0.072695 0.001508,-0.077508 0.009814,-0.090802 0.020604,-0.1065927 0.0351873,-0.1251738 0.0523424,-0.1400203 0.0336195,-0.075309 0.0384998,-0.077376 0.0450591,-0.081775 0.049875,-0.082154 0.0563829,-0.084722 0.063267,-0.086918 0.0695859,-0.087634 0.0691894,-0.08003 a 4,4 0 0 1 0.4695862,0 l 0.0691894,0.08003 0.0695859,0.087634 0.063267,0.086918 0.0563829,0.084722 0.049875,0.082154 0.0450591,0.081775 0.0384998,0.077376 0.0336195,0.075309 0.0523424,0.1400203 0.0351873,0.1251738 0.020604,0.1065927 0.009814,0.090802 0.001508,0.077508 -0.0521893,0.072695 -0.0496269,0.079416 -0.041809,0.078595 -0.0341675,0.07728 -0.0266974,0.075461 -0.019462,0.073149 -0.0124776,0.070392 -0.005752,0.067162 6.686e-4,0.063502 0.006768,0.059437 0.0125147,0.054984 0.0179033,0.050151 0.0229052,0.044967 0.0274868,0.039472 0.0316566,0.033669 0.0353762,0.027607 0.0189451,0.011446 0.1324829,0.059873 0.13074659,0.06902 0.12514662,0.07872 0.1180929,0.084797 0.019385,0.010684 0.041596,0.016833 0.044987,0.010581 0.047927,0.00407 0.050395,-0.00265 0.052383,-0.00957 0.053875,-0.016654 0.054858,-0.023857 0.055329,-0.031172 0.055288,-0.038562 0.054722,-0.046002 0.053618,-0.053429 0.052003,-0.060851 0.049843,-0.06823 0.047161,-0.075505 0.043963,-0.082686 0.036861,-0.081545 0.067878,-0.037448 0.083544,-0.036902 0.1026141,-0.035453 0.1259973,-0.032114 0.1474324,-0.02468 0.08203,-0.00854 0.08626,-0.00535 0.093349,-0.00187 0.096085,0.00212 0.1015629,0.00647 0.106907,0.011332 0.1106859,0.016446 0.1039025,0.019905 a 4,4 0 0 1 0.2347931,0.4066736 L 3.54076,-1.69325 3.49966,-1.58917 3.45602,-1.49092 3.41084,-1.39973 3.36463,-1.31546 3.31634,-1.23555 3.26858,-1.16352 3.22017,-1.09675 3.12508,-0.98141 3.03427,-0.88835 2.95226,-0.81721 2.87853,-0.76331 2.81216,-0.72325 2.72311,-0.7321 2.62952,-0.73537 2.54055,-0.73228 2.45654,-0.72323 2.37784,-0.70862 2.30476,-0.6889 2.23756,-0.66451 2.17652,-0.63591 2.12186,-0.60358 2.07377,-0.568 2.03241,-0.52967 1.99793,-0.48909 1.97044,-0.44677 1.95,-0.40323 1.93667,-0.35898 1.93045,-0.31454 1.93001,-0.29241 1.9444,-0.14774 1.95,0 1.9444,0.14774 1.93001,0.29241 1.93045,0.31454 1.93667,0.35898 1.95,0.40323 1.97044,0.44677 1.99793,0.48909 2.03241,0.52967 2.07377,0.568 2.12186,0.60358 2.17652,0.63591 2.23756,0.66451 2.30476,0.6889 2.37784,0.70862 2.45654,0.72323 2.54055,0.73228 2.62952,0.73537 2.72311,0.7321 2.81216,0.72325 2.87853,0.76331 2.95226,0.81721 3.03427,0.88835 3.12508,0.98141 3.22017,1.09675 3.26858,1.16352 3.31634,1.23555 3.36463,1.31546 3.41084,1.39973 3.45602,1.49092 3.49966,1.58917 3.54076,1.69325 3.575473,1.793185 A 4,4 0 0 1 3.34068,2.1998582 l -0.1039025,0.019905 -0.1106859,0.016446 -0.106907,0.011332 -0.1015629,0.00647 -0.096085,0.00212 -0.093349,-0.00187 -0.08626,-0.00535 -0.08203,-0.00854 -0.1474324,-0.02468 -0.1259973,-0.032114 -0.1026141,-0.035453 -0.083544,-0.036902 -0.067878,-0.037448 -0.036861,-0.081545 -0.043963,-0.082686 -0.047161,-0.075505 -0.049843,-0.06823 -0.052003,-0.060851 -0.053618,-0.053429 -0.054722,-0.046002 -0.055288,-0.038562 -0.055329,-0.031172 -0.054858,-0.023857 -0.053875,-0.016654 -0.052383,-0.00957 -0.050395,-0.00265 -0.047927,0.00407 -0.044987,0.010581 -0.041596,0.016833 -0.019385,0.010684 -0.1180929,0.084797 -0.1251466,0.07872 -0.13074659,0.06902 -0.1324829,0.059873 -0.0189451,0.011446 -0.0353762,0.027607 -0.0316566,0.033669 -0.0274868,0.039472 -0.0229052,0.044967 -0.0179033,0.050151 -0.0125147,0.054984 -0.006768,0.059437 -6.686e-4,0.063502 0.005752,0.067162 0.0124776,0.070392 0.019462,0.073149 0.0266974,0.075461 0.0341675,0.07728 0.041809,0.078595 0.0496269,0.079416 0.0521893,0.072695 -0.001508,0.077508 -0.009814,0.090802 -0.020604,0.1065927 -0.0351873,0.1251738 -0.0523424,0.1400203 -0.0336195,0.075309 -0.0384998,0.077376 -0.0450591,0.081775 -0.049875,0.082154 -0.0563829,0.084722 -0.063267,0.086918 -0.0695859,0.087634 -0.0691894,0.08003 a 4,4 0 0 1 -0.4695862,0 z"
           id="SvgjsPath1400" />
      </g>
    </g>
  </g>
</svg>
